public/avatar/body/167.svg

<svg xmlns:xlink="http://www.w3.org/1999/xlink" height="82" width="84.85" xmlns="http://www.w3.org/2000/svg"><g transform="translate(37.4 42.25)"><use height="38" transform="translate(-11.95 -17.45)" width="32.05" xlink:href="#a"/><use height="38.95" transform="translate(-12.45 -17.95)" width="33.05" xlink:href="#b"/><use height="23.5" transform="translate(-14 2.2)" width="35.85" xlink:href="#c"/><use height="11.25" transform="translate(5.9 6.4)" width="11.05" xlink:href="#d"/><use height="11.25" transform="matrix(-1 0 0 1 2.5 6.45)" width="11.05" xlink:href="#d"/><use height="7.8" transform="translate(2.4 10.85)" width="3.4" xlink:href="#e"/></g><defs><use height="38" width="32.05" xlink:href="#f" id="a"/><use height="38.95" width="33.05" xlink:href="#g" id="b"/><use height="11.25" width="11.05" xlink:href="#h" id="d"/><g id="c" fill-rule="evenodd"><path d="m21.85 16.75-.05.2q-.9 2.15-3.7 3-.8 2.25-4.55 2.95-.55.8-2.4 1.45l-3.95.4q-.65.65-2.25.85-3.2.35-4.35-.4-3.6.55-5.7-1.55-2 .1-3.95-1.65l-.35-.4q-1.4-.1-2.2-1.05l-.35-.85q-1.9-.65-2-2.2l-.05-.05.15-.35 2.5-3.6q.25-.4.7-.2 9.95 5.5 20.1 3.45 7.05-1.4 9.25-4.1l.5-.15.35.35q.9 2.45 2.15 3.55l.15.35" fill="#03102a" transform="translate(14 -2.2)"/><path d="m7 23.7-.55.6-1.35.35-1.25.05q-1.75.5-3.25-.5l-1.75.1-1.85-.5q-1.1-.25-1.75-1.2l-1-.25L-7.3 22q-1.05-.3-1.55-1.2-1.35.1-2.2-1.1l-.05-.65-.5-.1q-.95-.4-1.3-1.4l2.1-3 1.35.7q4.15 2.25 8.95 3l6.4.3q4.25-.45 8.3-1.9 1.65-.65 3.2-1.8l1.55-1.25q.6 1.75 1.8 3.2l-.55.7-.7.7q-.85.7-2.15 1l-.7.95-1.3 1.15-2.25.65-.95.7-1.8 1q-1.7.7-3.35.05" fill="#0075d6" transform="translate(14 -2.2)"/><path d="m-4.5 20.7-.3 1.35-.25.55-1.75-.35 2.45-2.9-.15 1.35m-3.35-2.05q-.1 1-.7 1.65l-.35.5-1.65-.55q1.7-.65 2.7-2.15v.55m-3.4.4-1.15-.7 1.9-1-.75 1.7M.4 20.35l-.2 3.9-1.95-.1 2.15-3.8m3.05 4.35 1.15-6.15 6.45-.65q4.5-1.2 7.9-4.3l.7 1.5 1.1 1.7-1.7 1.75-2.3-1.3.85 1.9-.4.6-.35.5-.45.35-1 .6-3.2-1.95.75 2.95-1.05.8-2.35.75-.7-1.45q-.55-1.2-1.5-1.9l-.45 3.5-1.3.4-2.15.4" fill="#243c89" transform="translate(14 -2.2)"/><path d="m20.3 10.3-.45 2.3.3.7.1.3-.1.3q-7.2 6.15-18.35 5.5-9.95-.6-14-5l.7-2.35q-.65-.75-1-5.05V6l-.45-.6-.1-.8.45-1.7q.25-.35.6-.15l8.3 3.6 7.85 3.2Q4.8 9.5 10.4 6.9q4.65-2.3 9.25-4.65L20 2.2q1.35.45 1.35 2.45l-.05.45-.1.2-.55.4.05 1.95-.1 1.2-.3 1.45" fill="#03102a" transform="translate(14 -2.2)"/><path d="M1.7 18.45q-8.6-.75-13.2-4.3 1.4-3.7 1.65-6.9L-12.2 5.6l.2-1.95L4.15 10.7q.35.05 6.1-2.7l9.6-4.9q.7.2.5 1.95-.5.5-2.35 1.6.8 6 1.4 6.6-6.85 6.2-17.7 5.2" fill="#fff" transform="translate(14 -2.2)"/></g><g id="h" fill-rule="evenodd"><path d="M3.9-1.65Q3-.55 1.5-.6L.8-.8q2.85-1.35 1.6-4.55Q1.2-1.95-2.1-.3l-3.3 1.8-.1.85-.05-.9 4.65-2.8q2.5-1.4 3.25-4.15l.35.25q.55 1.25.25 2.4-.4 1.45-1.5 1.95l1-.15 1.45-.6M-3.7 5q2 1 3.75-.3l.6-.5q-1.7 1.15-3.2-.5l.5-.55Q.8 3.8 3.2 2.05l.6-.35Q2.75 3.6-.05 3.55L-2 3.4l-.2.5q.95 1.15 2.35.45l.6-.25Q-.2 6.45-2.9 5.5l-.8-.5m7.5-3.4-2.3-.05 1.7-.05.8-.35-.2.45M2.85.85Q4.9-.4 5.25-2.9l.1-1.25-1.1 2.1 1.1-2.25Q6.1-1.25 3.2.65l-.35.2" fill="#03102a" transform="translate(5.55 5.5)"/><path d="m1.2-1.95.1-.6Q-.75-.4-3.6 1.35q-.85.55-1 1.45.65 1.7 2.4 1.85l-.9-1.3L1 2.3l-1.45-.75Q1.7 1.45 2.5-.5l-2.8.35.6-.65q.7-.4.9-1.15m-6.7 4.3.1-.85 3.3-1.8q3.3-1.65 4.5-5.05Q3.65-2.15.8-.8l.7.2Q3-.55 3.9-1.65l.35-.4 1.1-2.1-.1 1.25Q4.9-.4 2.85.85l-.2.15-.2.05-.95.5 2.3.05h.05l-.05.1-.6.35Q.8 3.8-2.05 3.15l-.5.55q1.5 1.65 3.2.5l-.6.5Q-1.7 6-3.7 5q-1.1-.75-1.6-2l-.2-.65" fill="#d31fff" transform="translate(5.55 5.5)"/><path d="M1.2-1.95Q1-1.2.3-.8l-.6.65L2.5-.5Q1.7 1.45-.45 1.55L1 2.3l-4.1 1.05.9 1.3Q-3.95 4.5-4.6 2.8q.15-.9 1-1.45Q-.75-.4 1.3-2.55l-.1.6" fill="#8af1ff" transform="translate(5.55 5.5)"/></g><g id="e" fill-rule="evenodd"><path d="m2.8 11.4.85.1.15 4.6-.15-.85-.85-3.85m.25 6.85 2-.1L4.9 15l.8 2.6-1.1 1.05-1.55-.4" fill="#03102a" transform="translate(-2.4 -10.85)"/><path d="m3.8 16.1-.15-4.6-.85-.1 1.45-.55 1.3.9.25 1-.8.15-.55.75L4.9 15l.15 3.15-2 .1-.65-.8 1.6.1-.2-1.45m1.5-4.25-.5-.25-.95 1.1 1 5.35v-.85q0-2.2-.7-4.45l1.15-.9" fill="#d31fff" transform="translate(-2.4 -10.85)"/><path d="m5.3 11.85-1.15.9q.7 2.25.7 4.45v.85l-1-5.35.95-1.1.5.25" fill="#8af1ff" transform="translate(-2.4 -10.85)"/></g><path d="M27.35 7.4q2.15 4.15 3.55 8.75 1.45 4.7 1.15 9.5-.35 4.95-4.2 8.1-3.8 3.2-8.75 4.05l-2.6.2q-3.6 0-7.05-1.15-4.65-1.6-7.1-5.5Q-.2 27.4.05 23q.2-4.4 2-9.3Q3.85 8.75 7 5.05 10.1 1.3 14.7.1l1.8-.1q1.9.05 3.7.8 4.75 2.05 7.15 6.6" fill="#ffc192" fill-rule="evenodd" transform="translate(-.05)" id="f"/><path d="M27.35 7.4Q24.95 2.85 20.2.8 17.55-.3 14.7.1 10.1 1.3 7 5.05q-3.15 3.7-4.95 8.65-1.8 4.9-2 9.3-.25 4.4 2.3 8.35 2.45 3.9 7.1 5.5 4.65 1.55 9.65.95 4.95-.85 8.75-4.05 3.85-3.15 4.2-8.1.3-4.8-1.15-9.5-1.4-4.6-3.55-8.75Z" fill="none" stroke="#333" stroke-linecap="round" stroke-linejoin="round" transform="translate(.45 .5)" id="g"/></defs></svg>

<?xml version="1.0" encoding="UTF-8" standalone="no"?>
<svg xmlns:xlink="http://www.w3.org/1999/xlink" height="82.0px" width="84.85px" xmlns="http://www.w3.org/2000/svg">
  <g transform="matrix(1.0, 0.0, 0.0, 1.0, 37.4, 42.25)">
    <use height="38.0" transform="matrix(1.0, 0.0, 0.0, 1.0, -11.95, -17.45)" width="32.05" xlink:href="#sprite0"/>
    <use height="38.95" transform="matrix(1.0, 0.0, 0.0, 1.0, -12.45, -17.95)" width="33.05" xlink:href="#sprite1"/>
    <use height="23.5" transform="matrix(1.0, 0.0, 0.0, 1.0, -14.0, 2.2)" width="35.85" xlink:href="#shape2"/>
    <use height="11.25" transform="matrix(1.0, 0.0, 0.0, 1.0, 5.9, 6.4)" width="11.05" xlink:href="#sprite2"/>
    <use height="11.25" transform="matrix(-1.0, 0.0, 0.0, 1.0, 2.5, 6.45)" width="11.05" xlink:href="#sprite2"/>
    <use height="7.8" transform="matrix(1.0, 0.0, 0.0, 1.0, 2.4, 10.85)" width="3.4" xlink:href="#shape4"/>
  </g>
  <defs>
    <g id="sprite0" transform="matrix(1.0, 0.0, 0.0, 1.0, -0.05, 0.0)">
      <use height="38.0" transform="matrix(1.0, 0.0, 0.0, 1.0, 0.05, 0.0)" width="32.05" xlink:href="#shape0"/>
    </g>
    <g id="shape0" transform="matrix(1.0, 0.0, 0.0, 1.0, -0.05, 0.0)">
      <path d="M27.35 7.4 Q29.5 11.55 30.9 16.15 32.35 20.85 32.05 25.65 31.7 30.6 27.85 33.75 24.05 36.95 19.1 37.8 L16.5 38.0 Q12.9 38.0 9.45 36.85 4.8 35.25 2.35 31.35 -0.2 27.4 0.05 23.0 0.25 18.6 2.05 13.7 3.85 8.75 7.0 5.05 10.1 1.3 14.7 0.1 L16.5 0.0 Q18.4 0.05 20.2 0.8 24.95 2.85 27.35 7.4" fill="#ffc192" fill-rule="evenodd" stroke="none"/>
    </g>
    <g id="sprite1" transform="matrix(1.0, 0.0, 0.0, 1.0, 0.45, 0.5)">
      <use height="38.95" transform="matrix(1.0, 0.0, 0.0, 1.0, -0.45, -0.5)" width="33.05" xlink:href="#shape1"/>
    </g>
    <g id="shape1" transform="matrix(1.0, 0.0, 0.0, 1.0, 0.45, 0.5)">
      <path d="M27.35 7.4 Q24.95 2.85 20.2 0.8 17.55 -0.3 14.7 0.1 10.1 1.3 7.0 5.05 3.85 8.75 2.05 13.7 0.25 18.6 0.05 23.0 -0.2 27.4 2.35 31.35 4.8 35.25 9.45 36.85 14.1 38.4 19.1 37.8 24.05 36.95 27.85 33.75 31.7 30.6 32.05 25.65 32.35 20.85 30.9 16.15 29.5 11.55 27.35 7.4 Z" fill="none" stroke="#333333" stroke-linecap="round" stroke-linejoin="round" stroke-width="1.0"/>
    </g>
    <g id="shape2" transform="matrix(1.0, 0.0, 0.0, 1.0, 14.0, -2.2)">
      <path d="M21.85 16.75 L21.8 16.95 Q20.9 19.1 18.1 19.95 17.3 22.2 13.55 22.9 13.0 23.7 11.15 24.35 L7.2 24.75 Q6.55 25.4 4.95 25.6 1.75 25.95 0.6 25.2 -3.0 25.75 -5.1 23.65 -7.1 23.75 -9.05 22.0 L-9.4 21.6 Q-10.8 21.5 -11.6 20.55 L-11.95 19.7 Q-13.85 19.05 -13.95 17.5 L-14.0 17.45 -13.85 17.1 -11.35 13.5 Q-11.1 13.1 -10.65 13.3 -0.7 18.8 9.45 16.75 16.5 15.35 18.7 12.65 L19.2 12.5 19.55 12.85 Q20.45 15.3 21.7 16.4 L21.85 16.75" fill="#03102a" fill-rule="evenodd" stroke="none"/>
      <path d="M7.0 23.7 L6.45 24.3 5.1 24.65 3.85 24.7 Q2.1 25.2 0.6 24.2 L-1.15 24.3 -3.0 23.8 Q-4.1 23.55 -4.75 22.6 L-5.75 22.35 -7.3 22.0 Q-8.35 21.7 -8.85 20.8 -10.2 20.9 -11.05 19.7 L-11.1 19.05 -11.6 18.95 Q-12.55 18.55 -12.9 17.55 L-10.8 14.55 -9.45 15.25 Q-5.3 17.5 -0.5 18.25 L5.9 18.55 Q10.15 18.1 14.2 16.65 15.85 16.0 17.4 14.85 L18.95 13.6 Q19.55 15.35 20.75 16.8 L20.2 17.5 19.5 18.2 Q18.65 18.9 17.35 19.2 L16.65 20.15 15.35 21.3 13.1 21.95 12.15 22.65 10.35 23.65 Q8.65 24.35 7.0 23.7" fill="#0075d6" fill-rule="evenodd" stroke="none"/>
      <path d="M-4.5 20.7 L-4.8 22.05 -5.05 22.6 -6.8 22.25 -4.35 19.35 -4.5 20.7 M-7.85 18.65 Q-7.95 19.65 -8.55 20.3 L-8.9 20.8 -10.55 20.25 Q-8.85 19.6 -7.85 18.1 L-7.85 18.65 M-11.25 19.05 L-12.4 18.35 -10.5 17.35 -11.25 19.05 M0.4 20.35 L0.2 24.25 -1.75 24.15 0.4 20.35 M3.45 24.7 L4.6 18.55 11.05 17.9 Q15.55 16.7 18.95 13.6 L19.65 15.1 20.75 16.8 19.05 18.55 16.75 17.25 17.6 19.15 17.2 19.75 16.85 20.25 16.4 20.6 15.4 21.2 12.2 19.25 12.95 22.2 11.9 23.0 9.55 23.75 8.85 22.3 Q8.3 21.1 7.35 20.4 L6.9 23.9 5.6 24.3 3.45 24.7" fill="#243c89" fill-rule="evenodd" stroke="none"/>
      <path d="M20.3 10.3 L19.85 12.6 20.15 13.3 20.25 13.6 20.15 13.9 Q12.95 20.05 1.8 19.4 -8.15 18.8 -12.2 14.4 L-11.5 12.05 Q-12.15 11.3 -12.5 7.0 L-12.5 6.0 -12.95 5.4 -13.05 4.6 -12.6 2.9 Q-12.35 2.55 -12.0 2.75 L-3.7 6.35 4.15 9.55 Q4.8 9.5 10.4 6.9 15.05 4.6 19.65 2.25 L20.0 2.2 Q21.35 2.65 21.35 4.65 L21.3 5.1 21.2 5.3 20.65 5.7 20.7 7.65 20.6 8.85 20.3 10.3" fill="#03102a" fill-rule="evenodd" stroke="none"/>
      <path d="M1.7 18.45 Q-6.9 17.7 -11.5 14.15 -10.1 10.45 -9.85 7.25 L-12.2 5.6 -12.0 3.65 4.15 10.7 Q4.5 10.75 10.25 8.0 L19.85 3.1 Q20.55 3.3 20.35 5.05 19.85 5.55 18.0 6.65 18.8 12.65 19.4 13.25 12.55 19.45 1.7 18.45" fill="#ffffff" fill-rule="evenodd" stroke="none"/>
    </g>
    <g id="sprite2" transform="matrix(1.0, 0.0, 0.0, 1.0, 5.55, 5.5)">
      <use height="11.25" transform="matrix(1.0, 0.0, 0.0, 1.0, -5.55, -5.5)" width="11.05" xlink:href="#shape3"/>
    </g>
    <g id="shape3" transform="matrix(1.0, 0.0, 0.0, 1.0, 5.55, 5.5)">
      <path d="M3.9 -1.65 Q3.0 -0.55 1.5 -0.6 L0.8 -0.8 Q3.65 -2.15 2.4 -5.35 1.2 -1.95 -2.1 -0.3 L-5.4 1.5 -5.5 2.35 -5.55 1.45 -0.9 -1.35 Q1.6 -2.75 2.35 -5.5 L2.7 -5.25 Q3.25 -4.0 2.95 -2.85 2.55 -1.4 1.45 -0.9 L2.45 -1.05 3.9 -1.65 M-3.7 5.0 Q-1.7 6.0 0.05 4.7 L0.65 4.2 Q-1.05 5.35 -2.55 3.7 L-2.05 3.15 Q0.8 3.8 3.2 2.05 L3.8 1.7 Q2.75 3.6 -0.05 3.55 L-2.0 3.4 -2.2 3.9 Q-1.25 5.05 0.15 4.35 L0.75 4.1 Q-0.2 6.45 -2.9 5.5 L-3.7 5.0 M3.8 1.6 L1.5 1.55 3.2 1.5 4.0 1.15 3.8 1.6 M2.85 0.85 Q4.9 -0.4 5.25 -2.9 L5.35 -4.15 4.25 -2.05 5.35 -4.3 Q6.1 -1.25 3.2 0.65 L2.85 0.85" fill="#03102a" fill-rule="evenodd" stroke="none"/>
      <path d="M1.2 -1.95 L1.3 -2.55 Q-0.75 -0.4 -3.6 1.35 -4.45 1.9 -4.6 2.8 -3.95 4.5 -2.2 4.65 L-3.1 3.35 1.0 2.3 -0.45 1.55 Q1.7 1.45 2.5 -0.5 L-0.3 -0.15 0.3 -0.8 Q1.0 -1.2 1.2 -1.95 M-5.5 2.35 L-5.4 1.5 -2.1 -0.3 Q1.2 -1.95 2.4 -5.35 3.65 -2.15 0.8 -0.8 L1.5 -0.6 Q3.0 -0.55 3.9 -1.65 L4.25 -2.05 5.35 -4.15 5.25 -2.9 Q4.9 -0.4 2.85 0.85 L2.65 1.0 2.45 1.05 1.5 1.55 3.8 1.6 3.85 1.6 3.8 1.7 3.2 2.05 Q0.8 3.8 -2.05 3.15 L-2.55 3.7 Q-1.05 5.35 0.65 4.2 L0.05 4.7 Q-1.7 6.0 -3.7 5.0 -4.8 4.25 -5.3 3.0 L-5.5 2.35" fill="#d31fff" fill-rule="evenodd" stroke="none"/>
      <path d="M1.2 -1.95 Q1.0 -1.2 0.3 -0.8 L-0.3 -0.15 2.5 -0.5 Q1.7 1.45 -0.45 1.55 L1.0 2.3 -3.1 3.35 -2.2 4.65 Q-3.95 4.5 -4.6 2.8 -4.45 1.9 -3.6 1.35 -0.75 -0.4 1.3 -2.55 L1.2 -1.95" fill="#8af1ff" fill-rule="evenodd" stroke="none"/>
    </g>
    <g id="shape4" transform="matrix(1.0, 0.0, 0.0, 1.0, -2.4, -10.85)">
      <path d="M2.8 11.4 L3.65 11.5 3.8 16.1 3.65 15.25 2.8 11.4 M3.05 18.25 L5.05 18.15 4.9 15.0 5.7 17.6 4.6 18.65 3.05 18.25" fill="#03102a" fill-rule="evenodd" stroke="none"/>
      <path d="M3.8 16.1 L3.65 11.5 2.8 11.4 4.25 10.85 5.55 11.75 5.8 12.75 5.0 12.9 4.45 13.65 4.9 15.0 5.05 18.15 3.05 18.25 2.4 17.45 4.0 17.55 3.8 16.1 M5.3 11.85 L4.8 11.6 3.85 12.7 4.85 18.05 4.85 17.2 Q4.85 15.0 4.15 12.75 L5.3 11.85" fill="#d31fff" fill-rule="evenodd" stroke="none"/>
      <path d="M5.3 11.85 L4.15 12.75 Q4.85 15.0 4.85 17.2 L4.85 18.05 3.85 12.7 4.8 11.6 5.3 11.85" fill="#8af1ff" fill-rule="evenodd" stroke="none"/>
    </g>
  </defs>
</svg>
